;Project Case_desgin
;Created by Estlcam version 11 build 11.235
;Machining time about 00:03:45 hours

G90
M03 S24000
G00 Z5.0000


;No. 1: Part 3
G00 X109.9978 Y61.3104
G00 Z0.5000
G01 Z0.0000 F10.000 S24000
G01 Z-1.0000
G03 X111.4978 Y62.8104 I0.0000 J1.5000 F20.000
G01 Y104.2596
G03 X109.9978 Y105.7596 I-1.5000 J0.0000
G01 X85.2634
G03 X83.7634 Y104.2596 I0.0000 J-1.5000
G01 Y62.8104
G03 X85.2634 Y61.3104 I1.5000 J0.0000
G01 X109.9978
G01 Z-2.0000 F10.000
G03 X111.4978 Y62.8104 I0.0000 J1.5000 F20.000
G01 Y104.2596
G03 X109.9978 Y105.7596 I-1.5000 J0.0000
G01 X85.2634
G03 X83.7634 Y104.2596 I0.0000 J-1.5000
G01 Y62.8104
G03 X85.2634 Y61.3104 I1.5000 J0.0000
G01 X109.9978
G01 Z-3.0000 F10.000
G03 X111.4978 Y62.8104 I0.0000 J1.5000 F20.000
G01 Y104.2596
G03 X109.9978 Y105.7596 I-1.5000 J0.0000
G01 X85.2634
G03 X83.7634 Y104.2596 I0.0000 J-1.5000
G01 Y62.8104
G03 X85.2634 Y61.3104 I1.5000 J0.0000
G01 X109.9978
G01 Z-4.0000 F10.000
G03 X111.4978 Y62.8104 I0.0000 J1.5000 F20.000
G01 Y104.2596
G03 X109.9978 Y105.7596 I-1.5000 J0.0000
G01 X85.2634
G03 X83.7634 Y104.2596 I0.0000 J-1.5000
G01 Y62.8104
G03 X85.2634 Y61.3104 I1.5000 J0.0000
G01 X109.9978
G00 Z5.0000


;No. 2: Part 1
G00 X138.8546 Y41.2351 Z5.0000
G00 Z0.5000
G01 Z0.0000 F10.000
G01 Z-1.0000
G03 X140.3546 Y42.7351 I0.0000 J1.5000 F20.000
G01 Y44.5510
G01 X147.0994
G03 X148.5994 Y46.0510 I0.0000 J1.5000
G01 Y99.2016
G01 X150.4295
G03 X151.9295 Y100.7016 I0.0000 J1.5000
G01 Y241.6288
G03 X150.4295 Y243.1288 I-1.5000 J0.0000
G01 X148.5994
G01 Y247.0240
G03 X147.0994 Y248.5240 I-1.5000 J0.0000
G01 X140.3546
G01 Y250.3400
G03 X138.8546 Y251.8400 I-1.5000 J0.0000
G01 X56.4066
G03 X54.9066 Y250.3400 I0.0000 J-1.5000
G01 Y248.5240
G01 X48.1618
G03 X46.6618 Y247.0240 I0.0000 J-1.5000
G01 Y243.1946
G01 X44.7930
G03 X43.2930 Y241.6946 I0.0000 J-1.5000
G01 Y100.7674
G03 X44.7930 Y99.2674 I1.5000 J0.0000
G01 X46.6618
G01 Y46.0510
G03 X48.1618 Y44.5510 I1.5000 J0.0000
G01 X54.9066
G01 Y42.7351
G03 X56.4066 Y41.2351 I1.5000 J0.0000
G01 X138.8546
G01 Z-2.0000 F10.000
G03 X140.3546 Y42.7351 I0.0000 J1.5000 F20.000
G01 Y44.5510
G01 X147.0994
G03 X148.5994 Y46.0510 I0.0000 J1.5000
G01 Y99.2016
G01 X150.4295
G03 X151.9295 Y100.7016 I0.0000 J1.5000
G01 Y241.6288
G03 X150.4295 Y243.1288 I-1.5000 J0.0000
G01 X148.5994
G01 Y247.0240
G03 X147.0994 Y248.5240 I-1.5000 J0.0000
G01 X140.3546
G01 Y250.3400
G03 X138.8546 Y251.8400 I-1.5000 J0.0000
G01 X56.4066
G03 X54.9066 Y250.3400 I0.0000 J-1.5000
G01 Y248.5240
G01 X48.1618
G03 X46.6618 Y247.0240 I0.0000 J-1.5000
G01 Y243.1946
G01 X44.7930
G03 X43.2930 Y241.6946 I0.0000 J-1.5000
G01 Y100.7674
G03 X44.7930 Y99.2674 I1.5000 J0.0000
G01 X46.6618
G01 Y46.0510
G03 X48.1618 Y44.5510 I1.5000 J0.0000
G01 X54.9066
G01 Y42.7351
G03 X56.4066 Y41.2351 I1.5000 J0.0000
G01 X138.8546
G01 Z-3.0000 F10.000
G03 X140.3546 Y42.7351 I0.0000 J1.5000 F20.000
G01 Y44.5510
G01 X147.0994
G03 X148.5994 Y46.0510 I0.0000 J1.5000
G01 Y99.2016
G01 X150.4295
G03 X151.9295 Y100.7016 I0.0000 J1.5000
G01 Y241.6288
G03 X150.4295 Y243.1288 I-1.5000 J0.0000
G01 X148.5994
G01 Y247.0240
G03 X147.0994 Y248.5240 I-1.5000 J0.0000
G01 X140.3546
G01 Y250.3400
G03 X138.8546 Y251.8400 I-1.5000 J0.0000
G01 X56.4066
G03 X54.9066 Y250.3400 I0.0000 J-1.5000
G01 Y248.5240
G01 X48.1618
G03 X46.6618 Y247.0240 I0.0000 J-1.5000
G01 Y243.1946
G01 X44.7930
G03 X43.2930 Y241.6946 I0.0000 J-1.5000
G01 Y100.7674
G03 X44.7930 Y99.2674 I1.5000 J0.0000
G01 X46.6618
G01 Y46.0510
G03 X48.1618 Y44.5510 I1.5000 J0.0000
G01 X54.9066
G01 Y42.7351
G03 X56.4066 Y41.2351 I1.5000 J0.0000
G01 X138.8546
G01 Z-4.0000 F10.000
G03 X140.3546 Y42.7351 I0.0000 J1.5000 F20.000
G01 Y44.5510
G01 X147.0994
G03 X148.5994 Y46.0510 I0.0000 J1.5000
G01 Y99.2016
G01 X150.4295
G03 X151.9295 Y100.7016 I0.0000 J1.5000
G01 Y241.6288
G03 X150.4295 Y243.1288 I-1.5000 J0.0000
G01 X148.5994
G01 Y247.0240
G03 X147.0994 Y248.5240 I-1.5000 J0.0000
G01 X140.3546
G01 Y250.3400
G03 X138.8546 Y251.8400 I-1.5000 J0.0000
G01 X56.4066
G03 X54.9066 Y250.3400 I0.0000 J-1.5000
G01 Y248.5240
G01 X48.1618
G03 X46.6618 Y247.0240 I0.0000 J-1.5000
G01 Y243.1946
G01 X44.7930
G03 X43.2930 Y241.6946 I0.0000 J-1.5000
G01 Y100.7674
G03 X44.7930 Y99.2674 I1.5000 J0.0000
G01 X46.6618
G01 Y46.0510
G03 X48.1618 Y44.5510 I1.5000 J0.0000
G01 X54.9066
G01 Y42.7351
G03 X56.4066 Y41.2351 I1.5000 J0.0000
G01 X138.8546
G00 Z5.0000


;No. 3: Part 2
G00 X109.9978 Y123.2490 Z5.0000
G00 Z0.5000
G01 Z0.0000 F10.000
G01 Z-1.0000
G03 X111.4978 Y124.7490 I0.0000 J1.5000 F20.000
G01 Y230.4444
G03 X109.9978 Y231.9444 I-1.5000 J0.0000
G01 X85.2634
G03 X83.7634 Y230.4444 I0.0000 J-1.5000
G01 Y124.7490
G03 X85.2634 Y123.2490 I1.5000 J0.0000
G01 X109.9978
G01 Z-2.0000 F10.000
G03 X111.4978 Y124.7490 I0.0000 J1.5000 F20.000
G01 Y230.4444
G03 X109.9978 Y231.9444 I-1.5000 J0.0000
G01 X85.2634
G03 X83.7634 Y230.4444 I0.0000 J-1.5000
G01 Y124.7490
G03 X85.2634 Y123.2490 I1.5000 J0.0000
G01 X109.9978
G01 Z-3.0000 F10.000
G03 X111.4978 Y124.7490 I0.0000 J1.5000 F20.000
G01 Y230.4444
G03 X109.9978 Y231.9444 I-1.5000 J0.0000
G01 X85.2634
G03 X83.7634 Y230.4444 I0.0000 J-1.5000
G01 Y124.7490
G03 X85.2634 Y123.2490 I1.5000 J0.0000
G01 X109.9978
G01 Z-4.0000 F10.000
G03 X111.4978 Y124.7490 I0.0000 J1.5000 F20.000
G01 Y230.4444
G03 X109.9978 Y231.9444 I-1.5000 J0.0000
G01 X85.2634
G03 X83.7634 Y230.4444 I0.0000 J-1.5000
G01 Y124.7490
G03 X85.2634 Y123.2490 I1.5000 J0.0000
G01 X109.9978
G00 Z5.0000
G00 X0.0000 Y0.0000

M05
