;Project Case_desginv1
;Created by Estlcam version 11 build 11.235
;Machining time about 00:05:29 hours

G90
M03 S24000
G00 Z5.0000


;No. 1: Part 2
G00 X94.9398 Y57.3478
G00 Z0.5000
G01 Z0.0000 F10.000 S24000
G01 Z-1.0000
G03 X96.4398 Y58.8478 I0.0000 J1.5000 F20.000
G01 Y100.2969
G03 X94.9398 Y101.7969 I-1.5000 J0.0000
G01 X70.2054
G03 X68.7054 Y100.2969 I0.0000 J-1.5000
G01 Y58.8478
G03 X70.2054 Y57.3478 I1.5000 J0.0000
G01 X94.9398
G01 Z-2.0000 F10.000
G03 X96.4398 Y58.8478 I0.0000 J1.5000 F20.000
G01 Y100.2969
G03 X94.9398 Y101.7969 I-1.5000 J0.0000
G01 X70.2054
G03 X68.7054 Y100.2969 I0.0000 J-1.5000
G01 Y58.8478
G03 X70.2054 Y57.3478 I1.5000 J0.0000
G01 X94.9398
G01 Z-3.0000 F10.000
G03 X96.4398 Y58.8478 I0.0000 J1.5000 F20.000
G01 Y100.2969
G03 X94.9398 Y101.7969 I-1.5000 J0.0000
G01 X70.2054
G03 X68.7054 Y100.2969 I0.0000 J-1.5000
G01 Y58.8478
G03 X70.2054 Y57.3478 I1.5000 J0.0000
G01 X94.9398
G01 Z-4.0000 F10.000
G03 X96.4398 Y58.8478 I0.0000 J1.5000 F20.000
G01 Y100.2969
G03 X94.9398 Y101.7969 I-1.5000 J0.0000
G01 X70.2054
G03 X68.7054 Y100.2969 I0.0000 J-1.5000
G01 Y58.8478
G03 X70.2054 Y57.3478 I1.5000 J0.0000
G01 X94.9398
G01 Z-5.0000 F10.000
G03 X96.4398 Y58.8478 I0.0000 J1.5000 F20.000
G01 Y100.2969
G03 X94.9398 Y101.7969 I-1.5000 J0.0000
G01 X70.2054
G03 X68.7054 Y100.2969 I0.0000 J-1.5000
G01 Y58.8478
G03 X70.2054 Y57.3478 I1.5000 J0.0000
G01 X94.9398
G01 Z-6.0000 F10.000
G03 X96.4398 Y58.8478 I0.0000 J1.5000 F20.000
G01 Y100.2969
G03 X94.9398 Y101.7969 I-1.5000 J0.0000
G01 X70.2054
G03 X68.7054 Y100.2969 I0.0000 J-1.5000
G01 Y58.8478
G03 X70.2054 Y57.3478 I1.5000 J0.0000
G01 X94.9398
G00 Z5.0000


;No. 2: Part 1
G00 X123.7966 Y37.2724 Z5.0000
G00 Z0.5000
G01 Z0.0000 F10.000
G01 Z-1.0000
G03 X125.2966 Y38.7724 I0.0000 J1.5000 F20.000
G01 Y40.5884
G01 X132.0414
G03 X133.5414 Y42.0884 I0.0000 J1.5000
G01 Y95.2389
G01 X135.3715
G03 X136.8715 Y96.7389 I0.0000 J1.5000
G01 Y237.6661
G03 X135.3715 Y239.1661 I-1.5000 J0.0000
G01 X133.5414
G01 Y243.0614
G03 X132.0414 Y244.5614 I-1.5000 J0.0000
G01 X125.2966
G01 Y246.3773
G03 X123.7966 Y247.8773 I-1.5000 J0.0000
G01 X41.3486
G03 X39.8486 Y246.3773 I0.0000 J-1.5000
G01 Y244.5614
G01 X33.1038
G03 X31.6038 Y243.0614 I0.0000 J-1.5000
G01 Y239.2319
G01 X29.7350
G03 X28.2350 Y237.7319 I0.0000 J-1.5000
G01 Y96.8048
G03 X29.7350 Y95.3048 I1.5000 J0.0000
G01 X31.6038
G01 Y42.0884
G03 X33.1038 Y40.5884 I1.5000 J0.0000
G01 X39.8486
G01 Y38.7724
G03 X41.3486 Y37.2724 I1.5000 J0.0000
G01 X123.7966
G01 Z-2.0000 F10.000
G03 X125.2966 Y38.7724 I0.0000 J1.5000 F20.000
G01 Y40.5884
G01 X132.0414
G03 X133.5414 Y42.0884 I0.0000 J1.5000
G01 Y95.2389
G01 X135.3715
G03 X136.8715 Y96.7389 I0.0000 J1.5000
G01 Y237.6661
G03 X135.3715 Y239.1661 I-1.5000 J0.0000
G01 X133.5414
G01 Y243.0614
G03 X132.0414 Y244.5614 I-1.5000 J0.0000
G01 X125.2966
G01 Y246.3773
G03 X123.7966 Y247.8773 I-1.5000 J0.0000
G01 X41.3486
G03 X39.8486 Y246.3773 I0.0000 J-1.5000
G01 Y244.5614
G01 X33.1038
G03 X31.6038 Y243.0614 I0.0000 J-1.5000
G01 Y239.2319
G01 X29.7350
G03 X28.2350 Y237.7319 I0.0000 J-1.5000
G01 Y96.8048
G03 X29.7350 Y95.3048 I1.5000 J0.0000
G01 X31.6038
G01 Y42.0884
G03 X33.1038 Y40.5884 I1.5000 J0.0000
G01 X39.8486
G01 Y38.7724
G03 X41.3486 Y37.2724 I1.5000 J0.0000
G01 X123.7966
G01 Z-3.0000 F10.000
G03 X125.2966 Y38.7724 I0.0000 J1.5000 F20.000
G01 Y40.5884
G01 X132.0414
G03 X133.5414 Y42.0884 I0.0000 J1.5000
G01 Y95.2389
G01 X135.3715
G03 X136.8715 Y96.7389 I0.0000 J1.5000
G01 Y237.6661
G03 X135.3715 Y239.1661 I-1.5000 J0.0000
G01 X133.5414
G01 Y243.0614
G03 X132.0414 Y244.5614 I-1.5000 J0.0000
G01 X125.2966
G01 Y246.3773
G03 X123.7966 Y247.8773 I-1.5000 J0.0000
G01 X41.3486
G03 X39.8486 Y246.3773 I0.0000 J-1.5000
G01 Y244.5614
G01 X33.1038
G03 X31.6038 Y243.0614 I0.0000 J-1.5000
G01 Y239.2319
G01 X29.7350
G03 X28.2350 Y237.7319 I0.0000 J-1.5000
G01 Y96.8048
G03 X29.7350 Y95.3048 I1.5000 J0.0000
G01 X31.6038
G01 Y42.0884
G03 X33.1038 Y40.5884 I1.5000 J0.0000
G01 X39.8486
G01 Y38.7724
G03 X41.3486 Y37.2724 I1.5000 J0.0000
G01 X123.7966
G01 Z-4.0000 F10.000
G03 X125.2966 Y38.7724 I0.0000 J1.5000 F20.000
G01 Y40.5884
G01 X132.0414
G03 X133.5414 Y42.0884 I0.0000 J1.5000
G01 Y95.2389
G01 X135.3715
G03 X136.8715 Y96.7389 I0.0000 J1.5000
G01 Y237.6661
G03 X135.3715 Y239.1661 I-1.5000 J0.0000
G01 X133.5414
G01 Y243.0614
G03 X132.0414 Y244.5614 I-1.5000 J0.0000
G01 X125.2966
G01 Y246.3773
G03 X123.7966 Y247.8773 I-1.5000 J0.0000
G01 X41.3486
G03 X39.8486 Y246.3773 I0.0000 J-1.5000
G01 Y244.5614
G01 X33.1038
G03 X31.6038 Y243.0614 I0.0000 J-1.5000
G01 Y239.2319
G01 X29.7350
G03 X28.2350 Y237.7319 I0.0000 J-1.5000
G01 Y96.8048
G03 X29.7350 Y95.3048 I1.5000 J0.0000
G01 X31.6038
G01 Y42.0884
G03 X33.1038 Y40.5884 I1.5000 J0.0000
G01 X39.8486
G01 Y38.7724
G03 X41.3486 Y37.2724 I1.5000 J0.0000
G01 X123.7966
G01 Z-5.0000 F10.000
G03 X125.2966 Y38.7724 I0.0000 J1.5000 F20.000
G01 Y40.5884
G01 X132.0414
G03 X133.5414 Y42.0884 I0.0000 J1.5000
G01 Y95.2389
G01 X135.3715
G03 X136.8715 Y96.7389 I0.0000 J1.5000
G01 Y237.6661
G03 X135.3715 Y239.1661 I-1.5000 J0.0000
G01 X133.5414
G01 Y243.0614
G03 X132.0414 Y244.5614 I-1.5000 J0.0000
G01 X125.2966
G01 Y246.3773
G03 X123.7966 Y247.8773 I-1.5000 J0.0000
G01 X41.3486
G03 X39.8486 Y246.3773 I0.0000 J-1.5000
G01 Y244.5614
G01 X33.1038
G03 X31.6038 Y243.0614 I0.0000 J-1.5000
G01 Y239.2319
G01 X29.7350
G03 X28.2350 Y237.7319 I0.0000 J-1.5000
G01 Y96.8048
G03 X29.7350 Y95.3048 I1.5000 J0.0000
G01 X31.6038
G01 Y42.0884
G03 X33.1038 Y40.5884 I1.5000 J0.0000
G01 X39.8486
G01 Y38.7724
G03 X41.3486 Y37.2724 I1.5000 J0.0000
G01 X123.7966
G01 Z-6.0000 F10.000
G03 X125.2966 Y38.7724 I0.0000 J1.5000 F20.000
G01 Y40.5884
G01 X132.0414
G03 X133.5414 Y42.0884 I0.0000 J1.5000
G01 Y95.2389
G01 X135.3715
G03 X136.8715 Y96.7389 I0.0000 J1.5000
G01 Y237.6661
G03 X135.3715 Y239.1661 I-1.5000 J0.0000
G01 X133.5414
G01 Y243.0614
G03 X132.0414 Y244.5614 I-1.5000 J0.0000
G01 X125.2966
G01 Y246.3773
G03 X123.7966 Y247.8773 I-1.5000 J0.0000
G01 X41.3486
G03 X39.8486 Y246.3773 I0.0000 J-1.5000
G01 Y244.5614
G01 X33.1038
G03 X31.6038 Y243.0614 I0.0000 J-1.5000
G01 Y239.2319
G01 X29.7350
G03 X28.2350 Y237.7319 I0.0000 J-1.5000
G01 Y96.8048
G03 X29.7350 Y95.3048 I1.5000 J0.0000
G01 X31.6038
G01 Y42.0884
G03 X33.1038 Y40.5884 I1.5000 J0.0000
G01 X39.8486
G01 Y38.7724
G03 X41.3486 Y37.2724 I1.5000 J0.0000
G01 X123.7966
G00 Z5.0000


;No. 3: Part 3
G00 X94.9398 Y119.2863 Z5.0000
G00 Z0.5000
G01 Z0.0000 F10.000
G01 Z-1.0000
G03 X96.4398 Y120.7863 I0.0000 J1.5000 F20.000
G01 Y226.4817
G03 X94.9398 Y227.9817 I-1.5000 J0.0000
G01 X70.2054
G03 X68.7054 Y226.4817 I0.0000 J-1.5000
G01 Y120.7863
G03 X70.2054 Y119.2863 I1.5000 J0.0000
G01 X94.9398
G01 Z-2.0000 F10.000
G03 X96.4398 Y120.7863 I0.0000 J1.5000 F20.000
G01 Y226.4817
G03 X94.9398 Y227.9817 I-1.5000 J0.0000
G01 X70.2054
G03 X68.7054 Y226.4817 I0.0000 J-1.5000
G01 Y120.7863
G03 X70.2054 Y119.2863 I1.5000 J0.0000
G01 X94.9398
G01 Z-3.0000 F10.000
G03 X96.4398 Y120.7863 I0.0000 J1.5000 F20.000
G01 Y226.4817
G03 X94.9398 Y227.9817 I-1.5000 J0.0000
G01 X70.2054
G03 X68.7054 Y226.4817 I0.0000 J-1.5000
G01 Y120.7863
G03 X70.2054 Y119.2863 I1.5000 J0.0000
G01 X94.9398
G01 Z-4.0000 F10.000
G03 X96.4398 Y120.7863 I0.0000 J1.5000 F20.000
G01 Y226.4817
G03 X94.9398 Y227.9817 I-1.5000 J0.0000
G01 X70.2054
G03 X68.7054 Y226.4817 I0.0000 J-1.5000
G01 Y120.7863
G03 X70.2054 Y119.2863 I1.5000 J0.0000
G01 X94.9398
G01 Z-5.0000 F10.000
G03 X96.4398 Y120.7863 I0.0000 J1.5000 F20.000
G01 Y226.4817
G03 X94.9398 Y227.9817 I-1.5000 J0.0000
G01 X70.2054
G03 X68.7054 Y226.4817 I0.0000 J-1.5000
G01 Y120.7863
G03 X70.2054 Y119.2863 I1.5000 J0.0000
G01 X94.9398
G01 Z-6.0000 F10.000
G03 X96.4398 Y120.7863 I0.0000 J1.5000 F20.000
G01 Y226.4817
G03 X94.9398 Y227.9817 I-1.5000 J0.0000
G01 X70.2054
G03 X68.7054 Y226.4817 I0.0000 J-1.5000
G01 Y120.7863
G03 X70.2054 Y119.2863 I1.5000 J0.0000
G01 X94.9398
G00 Z5.0000
G00 X0.0000 Y0.0000

M05
